X:158
T:La Casa Gris
M:4/4
K:D
"@-77.5,47.5 Guitar""@-67.5,37.5 Intro...""D"z2 df ag fd|"A"e8|z e eg f2 de|"Bm"d8|!
w:Per de-bax-o la pon-te yá nun pa-sa-ba l'-aire
"G"z A df gf de|"A"e8|z d  eg fB de|"D"d8||!
w:que l'a-gua fex-o 'l ca-mín a-ban-don-an-do 'l va-lle
"@-67.5,-17.5 (Chorus)"z2 f2 f2 e2|d8|z2 f2 a2 f2|"G"g8|"Em"z2 f2 f2 e2|"G"d8|"A"z2 e2 f2 a2|"G"g8|!
w:Si-em-pre veré tres de la mar la ca-sa gris na señ-al-dá
"A"z2 f2 f2 e2|"D"d8|z2 f2 a2 f2|"G"g8|"Em"z2 f2 f2 e2|"G"d8|"A"z2 e2 f2 a2|"G-A"g8||!
w:Si-em-pre taré cao del mio llar na ca-sa gris de mio can-tar
!coda!z2 de gf de|d8|]
W:
W:Y sentí el fríu nordés,
W:sí, como llora l'aire,
W:como los nenos nel mar
W:ente suaños de sable.
W:~ Chorus ~
W:
W:
W:Al mirar morrer el sol,
W:na cumbrera del puertu,
W:vi soledá nel camín
W:mientres durmía'l vientu
W:~ Chorus ~
W:
W:
W:Al final nun hai camín
W:que llev'l sol a casa
W:Queda namái soleda
W:naquella ingrata patria
W:~ Chorus ~

